packages/elvis-assets-icons/icons/svg/src/view_on.svg

<svg width="27" height="24" viewBox="0 0 27 24" fill="none" xmlns="http://www.w3.org/2000/svg">
<g clip-path="url(#clip0)">
<path d="M12.8443 19.499C8.14835 19.499 3.48491 16.459 0.685553 13.615C-0.215054 12.692 -0.215054 11.303 0.683386 10.383C3.48383 7.538 8.15268 4.5 12.8584 4.5C12.9137 4.5 12.9668 4.5 13.022 4.501C13.0675 4.5 13.1272 4.5 13.1878 4.5C17.8784 4.5 22.5451 7.538 25.3466 10.381C26.2472 11.304 26.2483 12.693 25.3487 13.614C22.5461 16.46 17.874 19.5 13.1618 19.5L13.0004 19.499H12.8443ZM12.8562 5.999C8.68264 5.999 4.4538 8.783 1.88853 11.389C1.5504 11.735 1.5504 12.26 1.8907 12.609C4.45488 15.214 8.68264 17.999 12.8584 17.999L13.0004 17.998L13.1477 17.999C17.3387 17.999 21.5751 15.214 24.1425 12.607C24.4807 12.261 24.4807 11.736 24.1404 11.387C21.574 8.783 17.343 6 13.1694 6C13.1694 6 13.0025 6.001 13.0004 6.001L12.8562 5.999Z" fill="black"/>
<path d="M13.0133 16.498C11.7107 16.498 10.486 16.029 9.5648 15.179C8.6436 14.329 8.1364 13.199 8.13748 11.997C8.13748 9.51599 10.3256 7.49799 13.0144 7.49799C14.3171 7.49799 15.5418 7.96599 16.463 8.81499C17.3841 9.66499 17.8914 10.794 17.8914 11.996C17.8914 13.202 17.3831 14.331 16.4619 15.181C15.5407 16.03 14.3171 16.498 13.0144 16.498H13.0133ZM13.0155 8.99799C11.223 8.99799 9.76421 10.343 9.76421 11.997C9.76421 12.798 10.1023 13.552 10.7158 14.118C11.3302 14.685 12.1463 14.997 13.0144 14.997C13.8836 14.997 14.6997 14.685 15.3131 14.119C15.9265 13.553 16.2657 12.799 16.2657 11.998C16.2657 11.194 15.9276 10.441 15.3131 9.87499C14.6997 9.30999 13.8836 8.99799 13.0155 8.99799Z" fill="black"/>
</g>
<defs>
<clipPath id="clip0">
<path d="M0.0103149 0H26.0206V24H0.0103149V0Z" fill="white"/>
</clipPath>
</defs>
</svg>

<svg width="27" height="24" fill="none" xmlns="http://www.w3.org/2000/svg"><g clip-path="url(#clip0)" fill="#000"><path d="M12.844 19.499c-4.696 0-9.36-3.04-12.158-5.884-.901-.923-.901-2.312-.003-3.232C3.483 7.538 8.153 4.5 12.858 4.5l.164.001.166-.001c4.69 0 9.357 3.038 12.159 5.881.9.923.901 2.312.002 3.233-2.803 2.846-7.475 5.886-12.187 5.886L13 19.499h-.156zm.012-13.5c-4.173 0-8.402 2.784-10.967 5.39a.859.859 0 00.002 1.22c2.564 2.605 6.792 5.39 10.967 5.39l.142-.001.148.001c4.19 0 8.427-2.785 10.994-5.392a.858.858 0 00-.002-1.22C21.574 8.783 17.343 6 13.17 6l-.17.001-.144-.002z"/><path d="M13.013 16.498c-1.302 0-2.527-.469-3.448-1.319-.921-.85-1.429-1.98-1.428-3.182 0-2.481 2.189-4.499 4.877-4.499 1.303 0 2.528.468 3.449 1.317.921.85 1.428 1.979 1.428 3.181 0 1.206-.508 2.335-1.43 3.185-.92.849-2.144 1.317-3.447 1.317zm.002-7.5c-1.792 0-3.25 1.345-3.25 2.999 0 .801.337 1.555.95 2.121a3.37 3.37 0 002.3.879c.869 0 1.685-.312 2.298-.878.614-.566.953-1.32.953-2.121 0-.804-.338-1.557-.953-2.123a3.374 3.374 0 00-2.298-.877z"/></g><defs><clipPath id="clip0"><path d="M.01 0h26.01v24H.01V0z" fill="#fff"/></clipPath></defs></svg>
